!!!!SEGMENT: pl-kk--kk-i-8--030_anonim--martyres-erant-apostoli.krn
!!!cenid: 16xx:1171
!!!COM: Anonim
!!!COM-rismID: pe30004985
!!!CDT:
!!!CNT:
!!!OTL: Martyres erant apostoli
!!!PDT:
!!!AGN: Sacred
!!!SMS-siglum: PL-Kk
!!!SMS-shelfmark: Kk.I.8
!!!SMS-shelfwork: 030 W
!!!SMS-variant:
!!!SMS-altvar:
!!!NIFC-rismSourceID: 1001148105
!!!NIFC-rismChildID: 1001149134
!!!NIFC-islandoraID: pl-kk:2296
!!!URL-pdf-islandora: https://repozytorium.nifc.pl/islandora/object/pl-kk%3A2296/datastream/PDF/view
!!!URL-scan: https://polish.musicsources.pl/pl/lokalizacje/galeria/rekopisy/6141 @EN{Scan on Polish Music Sources Website} @PL{Skany w portalu Dziedzictwo Muzyki Polskiej w otwartym dostępie}
!!!ONB-nifc: UWAGA: A (skan 0019), T1 (0042), T2 (0066), B (0089). Następny utwór: Lauda Mater Ecclesia
!!!AIN: 1 alto 1 empty 2 tenor
!!!key:
**kern	**text	**text	**kern	**text	**text	**kern	**text	**text	**kern	**text	**text
*part4	*part4	*part4	*part3	*part3	*part3	*part2	*part2	*part2	*part1	*part1	*part1
*staff4	*staff4	*staff4	*staff3	*staff3	*staff3	*staff2	*staff2	*staff2	*staff1	*staff1	*staff1
*Iempty	*	*	*Itenor	*	*	*Itenor	*	*	*Ialto	*	*
*I"Baſsus.	*	*	*I"Tenor 2dus	*	*	*I"Tenor. 1mus	*	*	*I"Alto.	*	*
*I'B.	*	*	*I'T.	*	*	*I'T.	*	*	*I'A.	*	*
*clefF4	*	*	*clefC4	*	*	*clefC1	*	*	*clefC3	*	*
*k[b-]	*	*	*k[b-]	*	*	*k[b-]	*	*	*k[b-]	*	*
*d:	*	*	*d:	*	*	*d:	*	*	*d:	*	*
*M3/2	*	*	*M3/2	*	*	*M3/2	*	*	*M3/2	*	*
=1	=1	=1	=1	=1	=1	=1	=1	=1	=1	=1	=1
!	!	!	!	!	!	!LO:TX:a:t=P:problem=w źródle głos zapisany ciągiem [partia przechodzi przez środek źródła]	!	!	!LO:TX:a:t=P:problem=w źródle głos zapisany ciągiem [partia przechodzi przez środek źródła]	!	!
!LO:TX:a:t=P:problem=w źródle głos zapisany ciągiem [partia przechodzi przez środek źródła]	!	!	!LO:TX:a:t=P:problem=w źródle głos zapisany ciągiem [partia przechodzi przez środek źródła]	!	!	!	!	!	!	!	!
!	!	!	!	!	!	!LO:TX:t=P:problem=w źródle inicjał T na początku pięciolinii	!	!	!LO:TX:t=P:problem=w źródle inicjał T na początku pięciolinii	!	!
!LO:TX:t=P:problem=w źródle inicjał T na początku pięciolinii	!	!	!LO:TX:t=P:problem=w źródle inicjał T na początku pięciolinii	!	!	!	!	!	!	!	!
!	!	!	!	!	!	!LO:TX:a:Bi:t=De apoſtolis t(emp)ore Paſchali z de i Maria Magdalena.	!	!	!LO:TX:a:Bi:t=De SS apoſtolis Temp.re Paſchali	!	!
!LO:TX:a:Bi:t=De. apostolis t(empo)re Paſchali.	!	!	!LO:TX:a:Bi:t=De apoſtolis t(emp)ore' Paſchali.	!	!	!	!	!	!	!	!
1D	1 Try-	2 Ser-	1A	1 Try-	2 Ser-	1dd	1 Try-	2 Ser-	1f	1 Try-	2 Ser-
2D/	-tes	-mo-	2D/	-tes	-mi-	2dd\	-tes	-mo-	2f\	-tes	-mo-
=2	=2	=2	=2	=2	=2	=2	=2	=2	=2	=2	=2
!	!	!	!LO:TX:a:i:t=a.	!	!	!	!	!	!	!	!
2D/	e-	-ne	2A\	e-	-ne	2dd\	e-	-ne	2f\	e-	-ne
2D/	-rant	ve-	2A\	-rant	Ve-	2dd\	-rant	ve-	2f\	-rant	ve-
2C/	a-	-rax.	2A\	a-	-rax	2a\	a	-rax	2e\	a-	-rax
=3	=3	=3	=3	=3	=3	=3	=3	=3	=3	=3	=3
1BB-	-po-	an-	1A	-po-	an-	1dd	po-	an-	1f	-po-	an-
2BB-/	-ſto-	-ge-	2G/	-ſto-	-ge-	2dd\	-ſto-	-ge-	4e\	-ſto-	-ge-
.	.	.	.	.	.	.	.	.	4d\	.	.
=4	=4	=4	=4	=4	=4	=4	=4	=4	=4	=4	=4
!	!	!	!LO:TX:a:t=P:global:problem=w źródle pionowa kreseczka [znak oddechu, rozdzielenie słów]	!	!	!	!	!	!	!	!
1AA	-li	-l(us)	1A,<	-li	-l(us)	1cc#X	-li	-l(us)	1e	-li	-l(us)
2FF/	de	Mu-	2c\	de	Mu-	2a\	de	Mu-	2f\	de	mu-
=5	=5	=5	=5	=5	=5	=5	=5	=5	=5	=5	=5
2BB-/	Chriſ-	-li-	2d\	Chriſ-	-li-	2dd\	Chriſ-	-li-	2f\	X-	-li-
2BB-/	-ti	-e-	2B-X,>\	-ti	-e-	2.dd\	-ti	-e-	2f\	-(t)i	-e-
2BB-/	a-	-ri-	2A/	a-	-ri-	.	.	.	2f\	a-	-ri-
.	.	.	.	.	.	4dd\	a-	-ri-	.	.	.
=6	=6	=6	=6	=6	=6	=6	=6	=6	=6	=6	=6
1C	-cer-	-b(us)	1G	-cer-	-b(us)	1cc	-cer-	-b(us)	1e	-cer-	-b(us)
1AA/	-bo	prae-	1A\	-bo	prae-	2cc\	-bo	prae-	1f\	-bo	p(rae)-
=7-	=7-	=7-	=7-	=7-	=7-	=7	=7	=7	=7-	=7-	=7-
.	.	.	.	.	.	1cc	fu-	-di-	.	.	.
2.C/	fu-	-di-	2.G/	fu-	-di-	.	.	.	2.f\	fu-	-di-
.	.	.	.	.	.	2cc\	-ne-	-xe-	.	.	.
4C/	-ne-	-xe-	4G/	-ne-	-xe-	.	.	.	4e\	-ne-	-xe-
=8-	=8-	=8-	=8	=8	=8	=8	=8	=8	=8	=8	=8
1.FF	-re	-rat	1.F	-re	-rat	1.cc	-re	-rat	1.f	-re	-rat
=9	=9	=9	=9	=9	=9	=9	=9	=9	=9	=9	=9
2F\	que(m)	Mox	2c\	que(m)	Mox	2cc\	que(m)	Mox	1f	que(m)	Mox
2F\	Mor-	o-	2d\	Mor-	o-	2cc\	Mor-	o-	.	.	.
4C/	-te	-re	2e\	-te	-re	2cc\	-te	-re	4e\	Mor-	o-
4D\	.	.	.	.	.	.	.	.	4f\	.	-re
=10	=10	=10	=10	=10	=10	=10	=10	=10	=10	=10	=10
!	!	!	!	!	!	!LO:N:acc=#	!	!	!LO:TX:a:t=P:problem=# above	!	!
2.E\	Cru-	Chris-	1G#X	Cru-	Chriſ-	1bn	Cru-	Chr(is-	2g#Xi\	-te	Chriſ-
.	.	.	.	.	.	.	.	.	2e\	cru-	.
4D\	.	.	.	.	.	.	.	.	.	.	.
4C/	.	.	4A\	.	.	2a\	.	.	2e\	-de-	-t(us)
4BB-/	.	.	4B-\	.	.	.	.	.	.	.	.
=11	=11	=11	=11-	=11-	=11-	=11	=11	=11	=11	=11	=11
2AA/	-de-	-t(us)	2c\	-de-	-t(us)	2a\	-de-	-tus)	1e	-liſ-	gau-
2.E\	-liſ-	qau-	2.B-\	-liſ-	gau-	2.a\	-liſ-	gau-	.	.	.
.	.	.	.	.	.	.	.	.	2e\	-si-	-di-
!	!	!	!	!	!	!LO:TX:a:t=P:problem=# above	!	!	!	!	!
4E\	-si-	-di-	4B-\	-si-	-di-	4g#Xi\	-si-	-di-	.	.	.
=12	=12	=12	=12	=12	=12	=12-	=12-	=12-	=12	=12	=12
!	!	!	!	!	!	!	!	!	!LO:TX:a:t=P:problem=w źródle wytarta kreska taktowa	!	!
1.AA	-ma	-u(m)	1.A	-ma	-u(m)	1.a	-ma	-u(m)	1.e	-ma	-um
=13	=13	=13	=13	=13	=13	=13	=13	=13	=13	=13	=13
2AA/	Ser-	gre-	2c\	Ser-	gre-	2a\	Ser-	gre-	2e\	Ser-	gre-
2C/	-ui	.	2.G/	-ui	-gi	2g/	-ui	.	2.c/	-ui	.
(<4BB-/	ne-	-gi	.	.	.	2g/	ne-	-gi	.	.	.
4AA/)	.	.	4A/	ne-	.	.	.	.	4c/	ne-	-gi
=14	=14	=14	=14	=14	=14	=14	=14	=14	=14	=14	=14
1GG	ca-	fe-	1B-X	-ca-	fe-	1g	-ce-	fe-	1d	-ce-	fe-
2GG/	-rant	-ret	2B-\	-rant	-ret	2g/	-rant	-ret	2d\	-rant	-ret
=15	=15	=15	=15	=15	=15	=15	=15	=15	=15	=15	=15
*	*ij	*	*	*	*	*	*ij	*	*	*ij	*ij
2GG/	Ser-	gre-	2B-\	Ser-	gre-	2b-X\	Ser-	gre-	2d\	Ser-	gre-
2BB-/	-ui	.	2.F/	-ui	-gi	2.b-\	-ui	-gi	2.d\	-ui	-gi
(<4AA/	ne-	-gi	.	.	.	.	.	.	.	.	.
4GG/)	.	.	4G/	ne-	.	4b-\	ne-	fe-	4e\	ne-	.
=16	=16	=16	=16	=16	=16	=16	=16	=16	=16	=16	=16
2FF/	-ca-	fe-	2.A/	-ca-	fe-	1a	-ce-	-ret	1f	-ce-	fe-
2F\	.	.	.	.	.	.	.	.	.	.	.
.	.	.	4A/	.	.	.	.	.	.	.	.
*	*	*	*	*	*	*	*	*ij	*	*	*
2G\	-rant	-ret	4G/	.	.	2b-\	-rant	gre-	2d\	-rant	-ret
.	.	.	4F/	.	.	.	.	.	.	.	.
*	*Xij	*	*	*	*	*	*Xij	*	*	*Xij	*Xij
=17	=17	=17	=17	=17	=17	=17	=17	=17	=17	=17	=17
*	*	*ij	*	*	*	*	*ij	*	*	*ij	*ij
2A\	Ser-	gre-	2E/	.	.	2cc\	Ser-	-gi	2c\	Ser-	gre-
2A\	-ui	gi	2E,</	-rant	-ret	2cc\	-ui	fe-	2c\	-ui	-gi
*	*	*	*2\right	*	*	*	*	*	*	*	*
2E\	ne-	fe-	2e\ 2E	ne-	fe-	2b-\	ne-	.	2e\	ne-	.
=18	=18	=18	=18	=18	=18	=18	=18	=18	=18	=18	=18
!	!	!	!LO:TX:a:t=P:problem=w następnych taktach dźwięki poprawiana przez skryptora	!	!	!	!	!	!	!	!
!	!	!	!LO:TX:a:i:t=c.	!	!	!	!	!	!	!	!
1A	-ca-	-ret	1c	-ca-	-ret	1a	-ce-	-ret	1e	-ce-	fe-
*	*	*Xij	*	*	*	*	*	*Xij	*	*	*
1D\	-rant	fi-	2d\	.	fi-	2a\	-rant	fi-	2f\	-rant	-ret
*	*	*	*2\left	*	*	*	*	*	*	*	*
*	*	*	*	*	*	*	*Xij	*	*	*Xij	*Xij
=19-	=19-	=19-	=19-	=19-	=19-	=19	=19	=19	=19	=19	=19
.	.	.	2d/	-rant	-de-	1a	im-	-de-	2f\	im-	fi-
!	!	!	!LO:TX:t=P:problem=współbrzmienie, nie wiem jak dopasować...	!	!	!	!	!	!	!	!
2.AA/	im-	-de-	2.B-/	im-	.	.	.	.	2.e\	.	-de-
.	.	.	.	.	.	2g#X\	-pi-	-li-	.	.	.
4AA/	-pi-	-li-	4B-/	-pi-	-li-	.	.	.	4e\	-pi-	-li-
=20-	=20-	=20-	=20-	=20-	=20-	=20-	=20-	=20-	=20	=20	=20
!	!	!	!	!	!	!LO:TX:a:t=P:problem=very like terminal long	!	!	!	!	!
!LO:TX:a:t=P:problem=w źródle fermata nad i pod nutą	!	!	!	!	!	!LO:TX:a:t=P:problem=w źródle fermata nad i pod nutą	!	!	!	!	!
1D;;	-i	-u(m)	1.c#X	-i	-um.	1.al;;	-i	-u(m).	1.f#X	-i	-u(m)
2ryy	.	.	.	.	.	.	.	.	.	.	.
!!LO:LB:g=original
=||-	=||-	=||-	=||	=||	=||	=||	=||	=||	=||	=||	=||
*M3/2	*	*	*M3/2	*	*	*M3/2	*	*	*M3/2	*	*
!	!	!	!LO:TX:t=P:problem=w źródle inicjał A na początku pięciolinii	!	!	!	!	!	!	!	!
2D/	3 Ad	6 De-	2d\	3 Ad	6 De-	2a\	3 Ad	6 De-	2r	.	.
!	!	!	!	!	!	!	!	!	!LO:TX:a:t=P:problem=# above the 2r	!	!
2D/	an-	-o	2d\	an-	-o	2a\	an-	-o	2f#Xi\	3 ad	6 De-
2D/	-xi-	Pa-	2d\	-xi-	Pa-	2d/	-xi-	Pa-	2f#\	an-	-o
=21	=21	=21	=21	=21	=21	=21	=21	=21	=21	=21	=21
1G	-os	-tri	1d	-os	-tri	1b-X	-os	-tri	2g\	-xi-	Pa-
.	.	.	.	.	.	.	.	.	2g\	-os	-tri
2C#X/	a-	Sit	2e\	a-	Sit	1a\	a-	Sit	2e\	a	Sit
=22	=22	=22	=22	=22	=22	=22-	=22-	=22-	=22	=22	=22
4D/	-po-	glo-	2A\	-po-	glo-	.	.	.	4f\	po-	glo-
4C/	.	.	.	.	.	.	.	.	4e\	.	.
2.BB-X/	.	.	2.d\	.	.	2.a\	-po-	glo-	2.d\	.	.
4BB-/	-sto-	-ri-	4d\	-sto-	-ri-	4g\	-ſto-	-ri-	4d\	-ſto-	-ri-
=23	=23	=23	=23-	=23-	=23-	=23	=23	=23	=23	=23	=23
1AA	-los	-a	1c#X	-los,	-a	1a	-li	-a	1e	-los	-a
!	!	!	!LO:N:acc=-	!	!	!	!	!	!	!	!
2F\	cur-	Et	2cn\	Cur-	et	2cc\	Cur-	et	2f\	Cur-	et
=24	=24	=24	=24	=24	=24	=24	=24	=24	=24	=24	=24
2BB-X/	-runt	Fi-	2d\	-runt	Fi-	1b-X	-runt	Fi-	2f\	-runt	Fi-
2BB-/	sa-	-li-	2d\	ſta-	-li-	.	.	.	2f\	ſta-	-li-
2C/	-tim	-o	2c\	-tim	-o	2b-\	ſta-	-li-	2e\	.	-us
=25	=25	=25	=25	=25	=25	=25	=25	=25	=25	=25	=25
*	*	*	*	*ij	*	*	*	*	*	*	*
2.D\	sta-	qui	2A\	Cur-	qui	1.a	-tim	-o	2f\	-tim	qui
.	.	.	2d\	-runt	.	.	.	.	2c\	ſta-	a
4E\	.	.	.	.	.	.	.	.	.	.	.
*	*	*	*	*	*	*	*	*	*col	*	*
2F\	-tim	.	2c\	ſta-	a	.	.	.	1f\	-tim	mor-
=26	=26	=26	=26	=26	=26	=26	=26	=26	=26-	=26-	=26-
2AA/	d(um)	a	1c	-tim	mor-	2a\	du(m)	qui	.	.	.
*	*	*	*	*	*	*	*	*	*Xcol	*	*
2.C/	nun-	mor-	.	.	.	2.g/	nun-	a	2.f\	du(m)	-tu-
*	*	*	*	*Xij	*	*	*	*	*	*	*
.	.	.	2c\	du(m)	-tu-	.	.	.	.	.	.
4C/	-ti-	-tu-	.	.	.	4g/	-ti-	mor-	4e\	Nun-	.
=27	=27	=27	=27	=27	=27	=27	=27	=27	=27	=27	=27
1FF	-ae	-is	1c	nun-	-is	1f	-ae	-tu-	1f	-ti-	-is
2F\	Il-	sur-	2c\	-ti-	sur-	2a\	il-	-is	2f\	-ae	Su-
=28	=28	=28	=28-	=28-	=28-	=28	=28	=28	=28	=28	=28
!LO:TX:a:t=P:problem=# above	!	!	!	!	!	!	!	!	!	!	!
1C#Xi	-lae	.	2c#X\	-ae	-re-	1a	-lae-	sur-	1e	il-	-re-
.	.	.	2c#\	il-	xit	.	.	.	.	.	.
2C#/	mi-	-re-	2e\	-lae	ac	2a\	-Mi-	-re-	2e\	-lae	-xit
=29	=29	=29	=29	=29	=29	=29	=29	=29	=29	=29	=29
1D	-can-	-xit	2d\	Mi-	Pa-	1a	-can-	-xit	2f\	mi-	ac
.	.	.	2d\	-can-	-ra-	.	.	.	2e\	-can-	Pa-
2BB-/	-tis	ac	2G/	-tis	.	2dd\	-tiſ	ac	2d\	-tiſ	.
=30	=30	=30	=30	=30	=30	=30	=30	=30	=30	=30	=30
2.AA/	ob-	Pa-	2.A/	ob-	.	2.cc#X\	ob-	pa-	2.e\	ob-	-ra-
4AA/	-vi-	-ra-	4A/	-ui-	-cli-	4cc#\	-ui-	-ra-	4e\	-ui-	-cli-
2AA/	-a	-cli-	2A/	-a	-to	2cc#\	-a	-cli-	2e\	-a	-to
=31	=31	=31	=31	=31	=31	=31	=31	=31	=31	=31	=31
!	!	!	!	!	!	!LO:TX:a:t=P:problem=w źródle bemol w funkcji kasownika	!	!	!	!	!
!	!	!	!	!	!	!LO:N:acc=-	!	!	!	!	!
2C/	Chri(s-	-to	2G/	chriſ-	in	2ccn\	Chriſ-	-to	1.rg	.	.
2.BB-/	-ti)	in	(<2.B-X\	-ti	Sem-	(>2.g\	-ti	in	.	.	.
4AA/	.	Sem-	4c\)	.	pi-	4a\)	.	Sem-	.	.	.
=32	=32	=32	=32	=32	=32	=32-	=32-	=32-	=32	=32	=32
1GG	te-	-pi-	1d	te-	-ter-	1b-	te-	-pi-	2g\	Chriſ-	in
.	.	.	.	.	.	.	.	.	2.d\	-ti	Sem-
2GG/	-nent	-ter-	2d\	-nent.	-na	2b-\	-nent	-ter-	.	.	.
.	.	.	.	.	.	.	.	.	4e\	te-	-pi-
=33	=33	=33	=33	=33	=33	=33	=33	=33	=33	=33	=33
*	*ij	*	*	*ij	*ij	*	*ij	*	*	*	*
2D\	Chris-	-na	2d\	chriſ-	in	2a\	Chriſ-	-na	2f\	-nent	-ter-
*	*	*ij	*	*	*	*	*	*	*	*ij	*
2.F\	-ti	in	2.c\	.	Sem-	(<2.f/	-ti	in	2f\	Chriſ-	-na
*	*	*	*	*	*	*	*	*	*	*	*ij
.	.	.	.	.	.	.	.	.	2f\	-ti	in
4E\	.	Sem-	4c\	-ti	-pi-	4g/)	.	Sem-	.	.	.
=34	=34	=34	=34	=34	=34	=34	=34	=34	=34	=34	=34
2.D\	te-	-pi-	1d	te-	-ter-	2.a\	te-	-pi-	2.f\	te-	Sem-
4E\	.	-ter-	.	.	.	4g\	.	-ter-	8e\L	.	-pi-
.	.	.	.	.	.	.	.	.	8d\J	.	.
2F\	-nent	-na	2A/	-nent	-na	4a\	-nent	-na	2c/	-nen	-ter-
*	*	*	*	*	*	*	*Xij	*	*	*	*
.	.	.	.	.	.	4b-\	.	.	.	.	.
*	*Xij	*Xij	*	*Xij	*Xij	*	*	*	*	*Xij	*
=35	=35	=35	=35	=35	=35	=35	=35	=35	=35	=35	=35
4C/	veſ-	Sae-	1A	veſ-	Se-	2cc\	veſ-	Sae-	2e\	veſ-	-na
4D/	.	.	.	.	.	.	.	.	.	.	.
*	*	*	*	*	*	*	*	*	*	*	*Xij
2.E\	-ti-	.	.	.	.	2.b-\	-ti-	.	2.e\	-ti-	Sae-
.	.	.	2G#X/	-ti-	-cu-	.	.	.	.	.	.
4E\	-gi-	-cu-	.	.	.	4b-\	-gi-	-cu-	4e\	-gi-	-cu-
=36	=36	=36	=36-	=36-	=36	=36	=36	=36	=36	=36	=36
1.AA	-a	-la	1.A	-a	-la	1.a	-a	-la	1.e	-a	-la
=37-	=37-	=37-	=37	=37	=37	=37	=37	=37	=37	=37	=37
2D/	Chri(s-	in	2d\	Chriſ-	In	1.r	.	.	2f\	Chriſ-	In
2.AA/	-ti)	Sem-	2.c\	-ti	ſem-	.	.	.	2.c\	-ti	Sem-
!LO:N:acc=#	!	!	!	!	!	!	!	!	!	!	!
4BBn/	.	-pi-	8B-\L	.	pi-	.	.	.	4d\	.	-pi-
.	.	.	8A\J	.	.	.	.	.	.	.	.
=38	=38	=38	=38	=38	=38	=38-	=38-	=38-	=38	=38	=38
1C	te-	-ter-	1G	te-	-ter-	2cc\	Chriſ-	in	1e	te-	-ter-
.	.	.	.	.	.	(>2.g\	-ti	Sem-	.	.	.
2C/	-nent	-na	2c\	-nent	-na	.	.	.	2e\	-nent	-na
.	.	.	.	.	.	4a\)	.	-pi-	.	.	.
=39	=39	=39	=39	=39	=39	=39	=39	=39	=39	=39	=39
*	*ij	*ij	*	*ij	*ij	*	*	*	*	*ij	*ij
2GG/	Chri(s-	in	2B-\	Chriſ-	in	1b-	te-	-ter-	2g\	Chriſ-	in
2.BB-/	-ti)	Sem-	1G	-ti-	Sem-	.	.	.	2.d\	-ti	Sem-
.	.	.	.	.	.	2b-\	-nent	-na	.	.	.
!LO:TX:a:t=P:problem=# above	!	!	!	!	!	!	!	!	!	!	!
4C#Xi/	.	-pi-	.	.	.	.	.	.	4e\	.	-pi-
=40	=40	=40	=40	=40	=40	=40	=40	=40	=40	=40	=40
*	*	*	*	*	*	*	*ij	*ij	*	*	*
2D/	te-	-ter-	2F/	-te-	-pi-	2a\	Chriſ-	in	2f\	te-	-ter-
2D/	-nent	-na	2F/	-nent	-ter-	2a\	-ti	Sem-	2f\	-nent	-na
*	*Xij	*Xij	*	*	*	*	*	*	*	*Xij	*Xij
*	*ij	*ij	*	*ij	*	*	*	*	*	*ij	*ij
2FF#/	Chri(s-	in	2d\	Chriſ-	-na	2a\	te-	-pi-	2a\	Chriſ-	in
*	*	*	*	*	*Xij	*	*	*	*	*	*
=41	=41	=41	=41	=41	=41	=41	=41	=41	=41	=41	=41
2.GG/	-ti)	Sem-	2.d\	-ti	Sae-	2.b-\	.	-ter-	2g\	-te	Sem-
.	.	.	.	.	.	.	.	.	2g\	te-	-pi-
4AA/	te-	-pi-	4c\	te-	-cu-	8a\L	.	.	.	.	.
.	.	.	.	.	.	8g\J	.	.	.	.	.
2BB-X/	-nent	-ter-	2B-\	-nent	-la	2f/	-nent	-na	2f\	nent	-ter-
*	*Xij	*	*	*Xij	*	*	*Xij	*Xij	*	*Xij	*
!	!	!	!LO:LB:g=original	!	!	!	!	!	!	!	!
=42	=42	=42	=42	=42	=42	=42	=42	=42	=42	=42	=42
2GG/	veſ-	-na	2d\	veſ-	.	2g/	veſ-	Se-	2e\	veſ-	-na
*	*	*Xij	*	*	*	*	*	*	*	*	*Xij
2.AA/	-ti-	Sae-	2.d\	-ti-	.	2.e/	-ti-	-cu-	2.e\	-ti-	Sae-
4AA/	-gi-	-cu-	4c\	-gi-	.	4a\	-gi-	.	4e\	-gi-	-cu-
=43-	=43-	=43-	=43-	=43-	=43-	=43-	=43-	=43-	=43-	=43-	=43-
!	!	!	!LO:TX:a:t=P:problem=very like terminal long	!	!	!	!	!	!	!	!
!LO:TX:a:t=P:problem=w źródle fermata nad i pod nutą	!	!	!	!	!	!LO:TX:a:t=P:problem=w źródle fermata nad i pod nutą	!	!	!LO:TX:a:t=P:problem=w źródle fermata nad i pod nutą	!	!
1D;;	-a	-la.	1.dl;	-a	.	1.a;;	-a.	-la.	1.f#X;;	-a	-la
2ryy	.	.	.	.	.	.	.	.	.	.	.
!LO:LB:g=original	!	!	!	!	!	!LO:LB:g=original	!	!	!LO:LB:g=original	!	!
=||	=||	=||	=||	=||	=||	=||	=||	=||	=||-	=||-	=||-
*	*	*	*clefC4	*	*	*	*	*	*	*	*
*	*	*	*k[b-]	*	*	*	*	*	*	*	*
*M3/2	*	*	*M3/2	*	*	*M3/2	*	*	*M3/2	*	*
!	!	!	!LO:TX:t=P:problem=w źródle inicjał G na pięciolinii	!	!	!	!	!	!	!	!
2r	.	.	2r	.	.	2r	.	.	2r	.	.
2D/	4 Ga -	.	2d\	4 Ga-	.	2a\	4 Ga-	.	2fny\	4 Ga-	.
2D/	-li-	.	2d\	-li-	.	2a\	-li-	.	2f\	-li-	.
=44	=44	=44	=44	=44	=44	=44	=44	=44	=44	=44	=44
2G\	-le-	.	2d\	-le-	.	2b-\	-le-	.	2g\	-le-	.
2G\	-ae	.	2d\	-ae	.	2cc\	-ae	.	2d\	-ae	.
2F\	ad	.	2A/	ad	.	2dd\	ad	.	2d\	ad	.
=45	=45	=45	=45	=45	=45	=45	=45	=45	=45	=45	=45
1E	al-	.	1G	al-	.	1cc#X	al-	.	1e	al-	.
2D\	-ta	.	2A/	-ta	.	2dd\	-ta	.	2f\	-ta	.
=46	=46	=46	=46	=46	=46	=46-	=46-	=46-	=46	=46	=46
2.A\	Mon-	.	2.A/	Mon-	.	2.cc#X\	Mon-	.	2.e\	Mon-	.
4A\	-ti-	.	4A/	-ti-	.	4cc#\	-ti-	.	4e\	-ti-	.
2A\	-u(m)	.	2A/	-u(m)	.	2cc#\	-u(m)	.	2e\	-u(m)	.
=47	=47	=47	=47	=47	=47	=47	=47	=47	=47	=47	=47
!	!	!	!	!	!	!LO:N:acc=-	!	!	!	!	!
2F\	Se	.	2A/	Se	.	2ccn\	Se	.	2f\	Se-	.
2F\	con-	.	2A/	con-	.	2cc\	con-	.	2f\	-con-	.
2E\	.	.	2G/	-fe-	.	2cc\	-fe-	.	2g\	-fe-	.
=48	=48	=48	=48	=48	=48	=48	=48	=48	=48	=48	=48
2.F\	-fe-	.	1.A	-runt	.	2.a\	-runt	.	1f	-runt	.
4G\	.	.	.	.	.	4b-\	a-	.	.	.	.
2A\	-runt	.	.	.	.	1cc\	-po-	.	2e\	a	.
=49	=49	=49	=49-	=49-	=49-	=49-	=49-	=49-	=49	=49	=49
2E\	a-	.	2G/	a	.	.	.	.	2e\	po-	.
2.G\	-po-	.	2.G/	po-	.	2.cc\	-ſto-	.	2.d\	.	.
!	!	!	!	!	!	!LO:SIC:s=bn	!	!	!	!	!
4G\	-sto-	.	4G/	-ſto-	.	4b-\	.	.	4d\	-ſto-	.
=50	=50	=50	=50	=50	=50	=50	=50	=50	=50	=50	=50
1.C	-li	.	1.G	-li	.	1.cc	-li	.	1.e	-li	.
=51	=51	=51	=51-	=51-	=51-	=51	=51	=51	=51	=51	=51
2c\	Je-	.	2c\	Je-	.	2g/	Je-	.	2e\	Je-	.
2B-X\	-ſu-	.	2d\	-ſu-	.	2g/	-su-	.	2e\	-su-	.
2A\	-q(ue)	.	2c\	-q(ue)	.	2a\	-q(ue)	.	2f#X\	-q(ue)	.
=52	=52	=52	=52	=52	=52	=52	=52	=52	=52	=52	=52
1G	Vo-	.	1B-	Vo-	.	1b-X	vo-	.	1g	Vo-	.
2G\	-ti	.	2B-\	ti	.	2b-\	-ti	.	2g\	-ti	.
=53	=53	=53	=53	=53	=53	=53	=53	=53	=53	=53	=53
*	*ij	*	*	*	*	*	*ij	*	*	*ij	*
2G\	Je-	.	2B-\	Je-	.	2b-\	Je-	.	2d\	Je-	.
2F\	-ſu-	.	2A/	-ſu-	.	2b-\	-su-	.	2d\	-su-	.
2E\	-q(ue)	.	2G/	-q(ue)	.	2cc\	-q(ue)	.	2e\	-q(ue)	.
*	*	*	*	*	*	*	*Xij	*	*	*	*
=54	=54	=54	=54	=54	=54	=54	=54	=54	=54	=54	=54
1.D	Vo-	.	4A\	Vo-	.	(>2dd\	vo-	.	2.f\	Vo-	.
.	.	.	8B-\L	.	.	.	.	.	.	.	.
.	.	.	8c\J	.	.	.	.	.	.	.	.
.	.	.	4d\	.	.	2a\)	.	.	.	.	.
.	.	.	4e\	.	.	.	.	.	4e\	.	.
.	.	.	2f\	-ti	.	2dd\	.	.	4f\	.	.
.	.	.	.	.	.	.	.	.	4g\	.	.
=55-	=55-	=55-	=55	=55	=55	=55	=55	=55	=55	=55	=55
2AA/	-ti	.	2f\	Com-	.	2cc\	-ti	.	4a\	-ti	.
*	*	*	*	*	*	*	*	*	*	*Xij	*
.	.	.	.	.	.	.	.	.	4g\	.	.
*	*Xij	*	*	*	*	*	*	*	*	*	*
2.C/	com-	.	2.f\	-po-	.	2.cc\	com-	.	2.g\	com-	.
4C/	-po-	.	4e\	.	.	4cc\	-po-	.	4g\	-po-	.
=56	=56	=56	=56	=56	=56	=56	=56	=56	=56	=56	=56
1FF	-tes	.	1f,>	-teſ	.	1cc	-teſ	.	1f	-teſ	.
2F\	al-	.	2A/	al-	.	2cc\	al-	.	2a\	al-	.
=57	=57	=57	=57	=57	=57	=57	=57	=57	=57	=57	=57
(>2.C/	-mo	.	1G	-mo	.	2.cc\	-mo	.	2.e\	-mo	.
4D\)	.	.	.	.	.	8b-\L	.	.	4f\	be-	.
.	.	.	.	.	.	8a\J	.	.	.	.	.
(>4E\	be-	.	2c\	be-	.	4g\	be-	.	4g\	-a-	.
4F\)	.	.	.	.	.	4a\	.	.	8f\L	.	.
.	.	.	.	.	.	.	.	.	8e\J	.	.
=58	=58	=58	=58	=58	=58	=58	=58	=58	=58	=58	=58
2G\	-an-	.	2B-\	-an-	.	2b-\	-an-	.	2d\	.	.
2G\	-tur	.	2B-\	-t(ur)	.	2b-\	-t(ur)	.	2d\	-tur	.
*	*	*	*	*ij	*	*	*	*	*	*ij	*
2G\	al-	.	2B-\	al-	.	2dd\	al-	.	2g\	al-	.
=59	=59	=59	=59	=59	=59	=59	=59	=59	=59	=59	=59
(>2.D\	-mo	.	1A	-mo	.	2.dd\	-mo	.	1f	-mo	.
4E\)	.	.	.	.	.	8cc\L	.	.	.	.	.
.	.	.	.	.	.	8b-\J	.	.	.	.	.
(>4F\	be-	.	2d\	be-	.	4a\	be-	.	2f\	be-	.
4G\)	.	.	.	.	.	4b-\	.	.	.	.	.
=60	=60	=60	=60	=60	=60	=60	=60	=60	=60	=60	=60
2A\	-an-	.	2c\	-an-	.	2cc\	-an-	.	2e\	-a-	.
2A\	-t(ur)	.	2c\	-t(ur)	.	2cc\	-t(ur)	.	2e\	-tur	.
*	*	*	*	*Xij	*	*	*	*	*	*Xij	*
*	*ij	*	*	*ij	*	*	*	*	*	*	*
2F\	al-	.	2A\	al-	.	2dd\	be-	.	2f\	be-	.
=61	=61	=61	=61	=61	=61	=61	=61	=61	=61	=61	=61
2.G\	-mo	.	2.B-\	-mo	.	1b-	-an-	.	1d	-an-	.
4F\	be-	.	4A\	be-	.	.	.	.	.	.	.
2E\	-an-	.	2G/	-an-	.	2cc#X\	.	.	2e\	.	.
=62	=62	=62	=62	=62	=62	=62	=62	=62	=62	=62	=62
2D/	-tur	.	2A/	-t(ur)	.	2dd\	-tur	.	2f\	-t(ur)	.
*	*Xij	*	*	*Xij	*	*	*	*	*	*	*
2.AA/	lu-	.	2.A/	lu-	.	2.dd\	Lu-	.	2.e\	lu-	.
!	!	!	!	!	!	!LO:SIC:v:s=4cc#\	!	!	!	!	!
4AA/	-mi-	.	4A/	-mi-	.	4cc\	-mi-	.	4e\	-mi-	.
=63	=63	=63	=63-	=63-	=63-	=63-	=63-	=63-	=63	=63	=63
!	!	!	!LO:TX:a:t=P:w źródle fermata nad i pod nutą:proble	!	!	!LO:TX:a:t=P:problem=w źródle fermata nad i pod nutą	!	!	!	!	!
!LO:TX:a:t=P:problem=w źródle fermata nad i pod nutą	!	!	!	!	!	!	!	!	!	!	!
1.D;;	-ne	.	1A;;	-ne	.	1.dd;;	-ne	.	1.d;<	-ne	.
.	.	.	2ryy	.	.	.	.	.	.	.	.
!LO:LB:g=original	!	!	!	!	!	!LO:LB:g=original	!	!	!	!	!
=||	=||	=||	=||-	=||-	=||-	=||	=||	=||	=||	=||	=||
*	*	*	*clefC4	*	*	*	*	*	*	*	*
*	*	*	*k[b-]	*	*	*	*	*	*	*	*
*M3/2	*	*	*M3/2	*	*	*M3/2	*	*	*M3/2	*	*
!	!	!	!LO:TX:a:t=P:problem=w źródle inicjał V przed metrum	!	!	!	!	!	!LO:TX:a:t=P:problem=w źródle inicjał V przed metrum	!	!
2D/	5 Ut	.	2d\	5 Vt	.	2a\	5 Vt	.	2A/	5 Vt	.
2D/	Sis	.	2f\	Sis	.	2a\	Sis	.	2d\	Sis	.
2C#X/	pe-	.	2e\	pe-	.	2a\	pe-	.	2e\	pe-	.
!	!	!	!	!	!	!	!	!	!LO:LB:g=original	!	!
=64	=64	=64	=64	=64	=64	=64	=64	=64	=64	=64	=64
2D/	-ren-	.	2d\	-ren-	.	2a\	-ren-	.	2f\	-ren-	.
!	!	!	!LO:SIC:V:s=1Bn	!	!	!	!	!	!	!	!
!	!	!	!	!	!	!LO:TX:a:t=P:problem=# above	!	!	!	!	!
!	!	!	!	!	!	!LO:N:acc=#	!	!	!	!	!
1G#X	-ne	.	1B-	-ne	.	1bni	-ne	.	2.e\	.	.
.	.	.	.	.	.	.	.	.	4d\	-ne	.
=65	=65	=65	=65	=65	=65	=65	=65	=65	=65-	=65-	=65-
2.A\	Men-	.	2.A\	Men-	.	2.cc#X\	Men-	.	2.c#X/	men-	.
4A\	-ti-	.	4B-\	-ti-	.	4cc#\	-ti-	.	4d\	-ti-	.
2A\	-b(us)	.	2c#X\	-b(us)	.	2cc#\	-b(us)	.	2e\	-b(us)	.
=66	=66	=66	=66	=66	=66	=66	=66	=66	=66	=66	=66
!	!	!	!	!	!	!LO:N:acc=-	!	!	!	!	!
2F\	Paſ-	.	2A/	Paſ-	.	2ccn\	Paſ-	.	(<4A/	Paſ-	.
.	.	.	.	.	.	.	.	.	4B-/)	.	.
2E\	.	.	2G/	.	.	2.cc\	-cha-	.	(<4c/	-cha-	.
.	.	.	.	.	.	.	.	.	4d/)	.	.
2E\	-cha-	.	2G/	-cha-	.	.	.	.	(<4c/	-le	.
.	.	.	.	.	.	4cc\	-le	.	4B-/)	.	.
=67	=67	=67	=67	=67	=67	=67	=67	=67	=67	=67	=67
2.F\	-le	.	(<2.A/	-le	.	1cc	Je-	.	2.A/	Je-	.
4E\	.	.	4G/)	.	.	.	.	.	8B-/L	.	.
.	.	.	.	.	.	.	.	.	8c/J	.	.
2D/	Je-	.	2F/	Je-	.	2dd\	.	.	4d\	.	.
.	.	.	.	.	.	.	.	.	4e\	.	.
=68	=68	=68	=68	=68	=68	=68	=68	=68	=68	=68	=68
2AA/	-su	.	2F/	-su	.	1.cc	-ſu	.	2f\	-ſu	.
2.C/	gau-	.	2.G/	gau-	.	.	.	.	2.f\	gau-	.
4C/	-di-	.	4G/	-di-	.	.	.	.	4e\	-di-	.
=69	=69	=69	=69	=69	=69	=69-	=69-	=69-	=69	=69	=69
1.FF	-um	.	1.A	-u(m)	.	2cc\	gau-	.	1.f	-u(m)	.
.	.	.	.	.	.	1.cc	di-	.	.	.	.
=70	=70	=70	=70	=70	=70	=70	=70	=70	=70	=70	=70
2E\	a	.	2G/	a	.	.	.	.	2c#X/	a	.
2E\	mor-	.	2G/	mor-	.	2ee\	-u(m)	.	2c#/	mor-	.
2E\	-te	.	2G/	-te	.	2ee\	a	.	2c#/	-te	.
=71	=71	=71	=71	=71	=71	=71-	=71-	=71-	=71	=71	=71
1D	di-	.	1F	di-	.	2g/	mor-	.	1d	di-	.
!	!	!	!	!	!	!LO:N:vis=1	!	!	!	!	!
!	!	!	!	!	!	!LO:N:acc=-	!	!	!	!	!
.	.	.	.	.	.	2an\	-te	.	.	.	.
2D/	-ra	.	2F/	-ra	.	2a\	.	.	2d/	-ra	.
=72	=72	=72	=72	=72	=72	=72	=72	=72	=72	=72	=72
*	*ij	*	*	*ij	*	*	*	*	*	*ij	*
2C#X/	a	.	2A/	a-	.	2a\	di-	.	2e\	a	.
2C#/	mor-	.	2A/	-mor-	.	2a\	-ra	.	2e\	mor-	.
*	*	*	*	*	*	*	*ij	*	*	*	*
2C#/	-te	.	2d\	-te	.	2a\	a	.	2g\	-te	.
=73	=73	=73	=73	=73	=73	=73	=73	=73	=73	=73	=73
1D	di-	.	1d	di-	.	1.a	mor-	.	2.f\	di-	.
.	.	.	.	.	.	.	.	.	4e\	-ra	.
2D/	-ra	.	2A/	-ra	.	.	.	.	4d\	.	.
.	.	.	.	.	.	.	.	.	4c\	.	.
*	*Xij	*	*	*Xij	*	*	*	*	*	*	*
=74	=74	=74	=74	=74	=74	=74	=74	=74	=74	=74	=74
4D/	di-	.	4F/	di-	.	1.a	-te	.	1d	di-	.
4C/	.	.	4E/	.	.	.	.	.	.	.	.
4D/	.	.	4F/	.	.	.	.	.	.	.	.
4E/	.	.	4G/	.	.	.	.	.	.	.	.
2F\	.	.	2A/	.	.	.	.	.	2c/	-ra	.
*	*	*	*	*	*	*	*Xij	*	*	*Xij	*
=75	=75	=75	=75	=75	=75	=75	=75	=75	=75	=75	=75
*	*	*	*	*	*	*col	*	*	*	*	*
2C/	-ra	.	2A/	-ra	.	1a	Cri-	.	2c/	Cri-	.
!	!	!	!LO:SIC:v:s=2.Bn\	!	!	!	!	!	!LO:SIC:v:s=2.Bn/	!	!
2.E\	Cri-	.	2.B-\	Cri-	.	.	.	.	2.B-/	.	.
!	!	!	!	!	!	!LO:TX:a:t=P:problem=# above	!	!	!	!	!
.	.	.	.	.	.	2g#X\	-mi-	.	.	.	.
!	!	!	!LO:SIC:v:s=4Bn\	!	!	!	!	!	!LO:SIC:v:s=4Bn/	!	!
4E\	-mi-	.	4B-\	-mi-	.	.	.	.	4B-/	-mi-	.
*	*	*	*	*	*	*Xcol	*	*	*	*	*
=76	=76	=76	=76-	=76-	=76-	=76	=76	=76	=76	=76	=76
1AA	-nu(m)	.	1c#X	-nu(m),	.	1a	-n(um)	.	1A	-nu(m)	.
2F\	Vi-	.	2f\	Vi-	.	2cc\	Vi-	.	2a\	vi-	.
=77	=77	=77	=77	=77	=77	=77	=77	=77	=77	=77	=77
2.F\	-tae	.	2.f\	-tae	.	2.cc\	-tae	.	2.a\	-tae	.
4A\	re-	.	4c\	re-	.	4a\	re-	.	4e\	re-	.
!	!	!	!	!	!	!LO:N:acc=#	!	!	!	!	!
2E\	-na-	.	2e\	-na-	.	2bn\	-na-	.	2g\	-na-	.
=78	=78	=78	=78	=78	=78	=78	=78	=78	=78	=78	=78
!	!	!	!	!	!	!LO:SIC:v:s=2.bn\	!	!	!	!	!
2.E\	-tos	.	2.e\	-tos	.	2.b-\	-tos	.	2.g\	-toſ	.
4G\	re-	.	4B-\	re-	.	4g\	re-	.	4d\	re-	.
2D\	-na-	.	2d\	-na-	.	2a\	-na-	.	2f\	-na-	.
=79	=79	=79	=79	=79	=79	=79	=79	=79	=79	=79	=79
2.D\	-tos	.	2.d\	-tos	.	2.a\	-tos	.	2.f\	-tos	.
4F\	re-	.	4A\	re-	.	4f/	re-	.	4c/	re-	.
4C/	.	.	2c\	-na-	.	2.g/	-na-	.	4e\	-na-	.
4D/	.	.	.	.	.	.	.	.	4f\	.	.
=80	=80	=80	=80	=80	=80	=80-	=80-	=80-	=80	=80	=80
4E/	-na-	.	4B-\	.	.	.	.	.	2.g\	.	.
4F\	.	.	4A\	.	.	4a\	.	.	.	.	.
2.G\	.	.	1G	.	.	4b-\	.	.	.	.	.
.	.	.	.	.	.	4cc\	.	.	8f\L	.	.
.	.	.	.	.	.	.	.	.	8e\J	.	.
.	.	.	.	.	.	2dd\	.	.	4d\	.	.
8F\L	.	.	.	.	.	.	.	.	4e\	.	.
8E\J	.	.	.	.	.	.	.	.	.	.	.
=81	=81	=81	=81	=81	=81	=81	=81	=81	=81	=81	=81
2D/	-tos	.	4A\	.	.	2a\	-tos	.	4f\	.	.
.	.	.	4B-\	.	.	.	.	.	4d\	.	.
4C/	re-	.	2c\	.	.	2a\	re-	.	4e\	.	.
8BB-/L	.	.	.	.	.	.	.	.	4f\	.	.
8AA/J	.	.	.	.	.	.	.	.	.	.	.
2GG/	-na-	.	2d\	.	.	2b-X\	-na-	.	2g\	.	.
=82	=82	=82	=82	=82	=82	=82	=82	=82	=82	=82	=82
2D/	-tos	.	1d	-tos	.	2a\	-tos	.	2f\	-tos	.
2.AA/	li-	.	.	.	.	2.a\	li-	.	2.e\	li-	.
.	.	.	4.c#X\	li-	.	.	.	.	.	.	.
4AA/	-be-	.	.	.	.	4a\	-be-	.	4e\	-be-	.
.	.	.	8c#\	-be-	.	.	.	.	.	.	.
=83-	=83-	=83-	=83-	=83-	=83-	=83	=83	=83	=83	=83	=83
!LO:TX:a:t=P:problem=w źródle fermata nad i pod nutą	!	!	!	!	!	!LO:TX:a:t=P:problem=w źródle fermata nad i pod nutą [bez kropek w śródku]	!	!	!	!	!
1.D;;	-ra	.	1.d;<	-ra	.	1a;;	-ra	.	1.d	-ra	.
.	.	.	.	.	.	2ryy	.	.	.	.	.
!LO:LB:g=original	!	!	!	!	!	!	!	!	!	!	!
=||	=||	=||	=||-	=||-	=||-	=||-	=||-	=||-	=||	=||	=||
*	*	*	*	*	*	*	*	*	*clefC3	*	*
*	*	*	*	*	*	*	*	*	*k[b-]	*	*
*M3/2	*	*	*	*	*	*M3/2	*	*	*M3/2	*	*
!	!	!	!	!	!	!	!	!	!LO:TX:a:t=P:problem=w źródle 'A' przed kluczem i metrum	!	!
!	!	!	!	!	!	!LO:TX:a:t=P:problem=kreska pseudotaktowa	!	!	!	!	!
!	!	!	!LO:TX:t=P:problem=w źrodle 2 znaki [7] przed nutą [rozdzielenie]	!	!	!LO:TX:t=P:problem=w źrodle 2 znaki [7] przed nutą [rozdzielenie]	!	!	!	!	!
2D/	al-	.	2d\	al-	.	2a\	al-	.	2f\	Al-	.
2D/	-le-	.	2d\	-le-	.	2dd\	-le-	.	2f\	-le-	.
2C/	-lu-	.	2A/	-lu-	.	2ee\	-lu-	.	2a\	-lu-	.
!	!	!	!LO:LB:g=original	!	!	!	!	!	!	!	!
=84-	=84-	=84-	=84	=84	=84	=84-	=84-	=84-	=84	=84	=84
!	!	!	!	!	!	!LO:TX:a:t=P:problem=kreska pseudotaktowa	!	!	!	!	!
1D	-ia	.	1A	-ia	.	2ff\	-ia	.	1f	-ia	.
.	.	.	.	.	.	2.a\	al-	.	.	.	.
*	*ij	*	*	*ij	*	*	*	*	*	*	*
2D\	al-	.	2d\	al-	.	.	.	.	2f\	al-	.
*	*	*	*	*	*	*custos:cc	*	*	*	*	*
.	.	.	.	.	.	4b-X\	.	.	.	.	.
!	!	!	!	!	!	!LO:LB:g=original	!	!	!LO:LB:g=original	!	!
=85-	=85-	=85-	=85	=85	=85	=85-	=85-	=85-	=85	=85	=85
!	!	!	!	!	!	!LO:TX:a:t=P:problem=kreska pseudotaktowa z kropką za kreską	!	!	!	!	!
1E	-le-	.	1c	-le-	.	2.cc\	.	.	1g	-le-	.
.	.	.	.	.	.	.	.	.	.	.	.
.	.	.	.	.	.	4dd\	.	.	.	.	.
2E\	-lu-	.	2G/	.	.	4b-\	.	.	2g\	-lu-	.
.	.	.	.	.	.	4cc\	.	.	.	.	.
=86-	=86-	=86-	=86	=86	=86	=86-	=86-	=86-	=86	=86	=86
2F\	-ia	.	4A/	-lu-	.	4a\	.	.	1f	-ia	.
!	!	!	!	!	!	!LO:TX:a:t=P:problem=kreska pseudotaktowa	!	!	!	!	!
.	.	.	4B-/	.	.	4g\	.	.	.	.	.
*	*Xij	*	*	*	*	*	*	*	*	*	*
4FF/	al-	.	4A/	.	.	4a\	.	.	.	.	.
4GG/	.	.	4G/	.	.	4b-\	.	.	.	.	.
!	!	!	!	!	!	!	!	!	!LO:N:vis=2.	!	!
2AA/	.	.	2F/	-ia	.	2cc\	.	.	2c/	al-	.
*	*	*	*	*Xij	*	*	*	*	*	*	*
=87-	=87-	=87-	=87	=87	=87	=87-	=87-	=87-	=87	=87	=87
!	!	!	!	!	!	!LO:TX:a:t=P:problem=kreska pseudotaktowa	!	!	!	!	!
2BB-/	.	.	2G/	al-	.	2dd\	-le-	.	8d\L	.	.
.	.	.	.	.	.	.	.	.	8e\J	.	.
.	.	.	.	.	.	.	.	.	4f\	.	.
2.C/	-le-	.	2.G/	-le-	.	2.g/	.	.	2.f\	-le-	.
4C/	-lu-	.	4c\	-lu-	.	4g/	-lu-	.	4e\	-lu-	.
=88-	=88-	=88-	=88-	=88-	=88-	=88-	=88-	=88-	=88	=88	=88
!	!	!	!	!	!	!LO:TX:a:t=P:problem=kreska pseudotaktowa	!	!	!	!	!
2.FF/	-ia	.	2.A/	-ia	.	2f/	-ia	.	2f\	-ia	.
*	*	*	*	*	*	*	*	*	*	*ij	*
.	.	.	.	.	.	2ff\	al-	.	1f	al-	.
*	*ij	*	*	*ij	*	*	*	*	*	*	*
4FF/	al-	.	4A\	al-	.	.	.	.	.	.	.
4GG/	-le-	.	4B-\	-le-	.	2ee\	-le-	.	.	.	.
4AA/	.	.	4c\	.	.	.	.	.	.	.	.
=89-	=89-	=89-	=89	=89	=89	=89-	=89-	=89-	=89	=89	=89
!	!	!	!	!	!	!LO:TX:a:t=P:problem=kreska pseudotaktowa z kropką za kreską	!	!	!	!	!
2BB-/	.	.	2d\	-lu-	.	2.dd\	-lu-	.	1f	-le-	.
2BB-/	-lu-	.	2B-\	.	.	.	.	.	.	.	.
.	.	.	.	.	.	4ff\	.	.	.	.	.
2GG/	.	.	2B-\	-ia	.	4ee\	.	.	2g\	-lu-	.
.	.	.	.	.	.	4dd\	.	.	.	.	.
*	*	*	*	*Xij	*	*	*	*	*	*	*
=90-	=90-	=90-	=90-	=90-	=90-	=90-	=90-	=90-	=90	=90	=90
*	*	*	*	*ij	*	*	*	*	*	*	*
!	!	!	!	!	!	!LO:TX:a:t=P:problem=kreska pseudotaktowa z kropką za kreską	!	!	!	!	!
2AA/	-ia	.	2A/	al-	.	2.cc#X\	.	.	2.e\	-ia	.
*	*Xij	*	*	*	*	*	*	*	*	*	*
2.A\	al-	.	2.A\	-le-	.	.	.	.	.	.	.
*	*	*	*	*	*	*	*	*	*	*Xij	*
*	*	*	*	*	*	*	*	*	*	*ij	*
.	.	.	.	.	.	4dd\	.	.	4e\	al-	.
.	.	.	.	.	.	2ee\	-ia.	.	4f\	.	.
4G\	.	.	4B-\	-lu-	.	.	.	.	4g\	.	.
=91-	=91-	=91-	=91	=91	=91	=91-	=91-	=91-	=91	=91	=91
!	!	!	!	!	!	!LO:TX:a:t=P:problem=kreska pseudotaktowa	!	!	!	!	!
2F\	.	.	2c\	-ia	.	2a\	al-	.	2a\	-le-	.
*	*	*	*	*Xij	*	*	*	*	*	*	*
*	*	*	*	*ij	*	*	*	*	*	*	*
2E\	-le-	.	4d\	al-	.	(>4b-\	-le-	.	2g\	.	.
.	.	.	4e\	.	.	4ccny\)	.	.	.	.	.
2D/	-lu-	.	4f\	-le-	.	(>4dd\	-lu-	.	2f\	-lu-	.
.	.	.	4g\	.	.	4ee\)	.	.	.	.	.
=92-	=92-	=92-	=92	=92	=92	=92-	=92-	=92-	=92	=92	=92
2.AA/	-ia	.	2.e\	-lu-	.	1cc#X	-ia	.	1.e	-ia	.
4A\	al-	.	4d\	-ia	.	.	.	.	.	.	.
*	*	*	*	*Xij	*	*	*	*	*	*	*
*	*	*	*	*ij	*	*	*ij	*	*	*	*
!	!	!	!	!	!	!LO:TX:a:t=P:problem=kreska pseudotaktowa	!	!	!	!	!
4G\	.	.	4c\	al-	.	2ee\	al-	.	.	.	.
4F\	.	.	4B-\	.	.	.	.	.	.	.	.
*	*	*	*	*	*	*	*	*	*	*Xij	*
=93-	=93-	=93-	=93	=93	=93	=93	=93	=93	=93	=93	=93
*	*	*	*	*	*	*	*	*	*	*ij	*
1E	.	.	2B-\	-le-	.	2.gg\	-le-	.	2.e\	al-	.
.	.	.	2B-\	-lu-	.	.	.	.	.	.	.
.	.	.	.	.	.	4ff\	.	.	4d\	.	.
2A\	.	.	2A/	ia	.	2ee\	.	.	2c/	.	.
*	*	*	*	*Xij	*	*	*	*	*	*	*
=94-	=94-	=94-	=94	=94	=94	=94	=94	=94	=94	=94	=94
*	*	*	*	*ij	*	*	*	*	*	*	*
2D/	.	.	2A/	al-	.	2ff\	-lu-	.	2d\	-le-	.
2.AA/	-le-	.	2.A/	-le-	.	2.ee\	.	.	2.d\	-lu-	.
4AA/	-lu-	.	4A/	-lu-	.	4dd\	.	.	4c/	.	.
=95-	=95-	=95-	=95-	=95-	=95-	=95-	=95-	=95-	=95	=95	=95
!LO:TX:a:t=P:problem=w źródle brak kreski końcowej	!	!	!LO:TX:a:t=P:problem=w źródle brak kreski końcowej	!	!	!	!	!	!	!	!
!	!	!	!LO:TX:a:t=P:problem=w źródle fermata nad i pod nutą	!	!	!LO:TX:a:t=P:problem=w źródle fermata nad i pod nutą	!	!	!	!	!
!LO:TX:a:t=P:problem=w źródle fermata nad i pod nutą	!	!	!	!	!	!	!	!	!LO:TX:a:t=P:problem=w źródle 2 ozdobne fermaty nad i pod nutą	!	!
!	!	!	!	!	!	!LO:TX:a:t=P:problem=w źródle brak kreski końcowej	!	!	!	!	!
1D;;	-ia	.	1A;;	-ia	.	1.dd;;	-ia	.	1.d;;	-ia	.
*	*	*	*	*Xij	*	*	*	*	*	*	*
2ryy	.	.	2ryy	.	.	.	.	.	.	.	.
*	*	*	*	*	*	*	*Xij	*	*	*Xij	*
==	==	==	==	==	==	==	==	==	==	==	==
*-	*-	*-	*-	*-	*-	*-	*-	*-	*-	*-	*-
!!!system-decoration: [(s1,s2,s3,s4)]
!!!RDF**kern: > = above
!!!RDF**kern: < = below
!!!RDF**kern: i = editorial accidental
!!!RDF**kern: l = terminal long
!!!EED: Wojciech Jakubiak-Danek
!!!EEV: 2021-04-06
!!!ENC: Marcin Jachim
!!!END: 2021-03-27
!!!YEC: Copyright 2022 Narodowy Instytut Fryderyka Chopina (https://polishscores.org)
!!!YEM: License CC-BY-4.0 (https://creativecommons.org/licenses/by/4.0)
